X: 25165
T: Major Cockscomb's
R: mazurka
M: 3/4
K: Dmajor
|:FG|A3d cd|A4 FA|GB EF GA|cB AG FG|
A3d cd|A2F2D2|EF GA Bc|d4:|
|:ef|g2 Bg Bg|f2 df Af|ed cB AG|FG AB A2|
g2Bg Bg|f2 df Af|ed cB (3ABc|d4:|

